X: 1
T: Blue-eyed Stranger - Fieldtown
C: Trad
R: Rag Morris
M: 4/4
L: 1/8
K: G
Z: ABC transcription by Michael Greene (2009) and Mackin
[P:A] |: "G"G2 D2 D2 GF | "C" ED"D"EF "G" GF"D"GA | "G" B2 d2 "C" cBAG |[1"C/A" E2 "D" F2 "G" GD"D"ED :| [2"C/A" E2 "D" F2 "G" G4||
P:B
|: "G" GABc "G/B" d2 d2 | "C" edcB "D" A2  A2 | "G" GABc d2 d2 | "C" B2 c2 "D"d4|
"G" GABc d2 d2 | "C" edcB "D" A2 GA | "G" B2 d2 "C" cBAG | "C/A" E2 "D" F2 "G" G4 :| 
r: 24
